content/images/project/kubernetes.svg

<svg width="36" height="36" viewBox="0 0 36 36" fill="none" xmlns="http://www.w3.org/2000/svg">
<g clip-path="url(#clip0_251_866)">
<path d="M0 4C0 1.79086 1.79086 0 4 0H32C34.2091 0 36 1.79086 36 4V32C36 34.2091 34.2091 36 32 36H4C1.79086 36 0 34.2091 0 32V4Z" fill="#326CE5"/>
<path d="M15.2438 8.6913C15.657 8.5981 16.0846 8.53966 16.5132 8.51669C20.8123 8.28626 24.4818 11.6444 24.7057 16.014C24.7823 17.5095 24.4285 18.9933 23.716 20.2832C26.7505 19.1878 28.8051 16.1957 28.63 12.7803C28.417 8.62241 24.9184 5.42069 20.8277 5.63995C18.591 5.75983 16.5468 6.9087 15.2438 8.6913Z" fill="white"/>
<path d="M18.4985 -7C17.7304 -6.99992 17.1077 -6.30616 17.1077 -5.45039C17.1077 -5.43725 17.1104 -5.4247 17.1107 -5.41165C17.1096 -5.29537 17.104 -5.15528 17.1077 -5.05405C17.1261 -4.56046 17.2334 -4.18269 17.2979 -3.72794C17.4149 -2.75462 17.513 -1.9478 17.4525 -1.1979C17.3936 -0.915113 17.1859 -0.656494 17.0008 -0.476731L16.9681 0.113314C16.1334 0.182657 15.2932 0.309637 14.4539 0.500717C10.8426 1.32293 7.73338 3.18827 5.36617 5.70682C5.21257 5.60174 4.94384 5.40842 4.86394 5.34921C4.61562 5.38284 4.36465 5.45967 4.03778 5.26875C3.41537 4.84863 2.8485 4.26871 2.16257 3.57014C1.84828 3.23598 1.62068 2.91778 1.24726 2.59567C1.16246 2.52252 1.03304 2.42359 0.938191 2.34833C0.646254 2.11493 0.301923 1.99321 -0.0306144 1.98179C-0.458162 1.96711 -0.869749 2.13473 -1.13909 2.47349C-1.61793 3.07573 -1.46462 3.99622 -0.797338 4.52971C-0.790567 4.53511 -0.783357 4.53932 -0.776536 4.54461C-0.684841 4.61914 -0.572555 4.71465 -0.488271 4.77705C-0.0920124 5.07043 0.26996 5.22061 0.664786 5.45351C1.4966 5.96863 2.18619 6.39576 2.73316 6.91074C2.94675 7.13905 2.98408 7.54136 3.01251 7.71535L3.45828 8.11467C1.07195 11.7158 -0.0324559 16.164 0.620214 20.6963L0.0377412 20.8662C-0.115775 21.065 -0.332702 21.3778 -0.559594 21.4711C-1.27522 21.6972 -2.08061 21.7802 -3.05293 21.8824C-3.50943 21.9204 -3.90331 21.8977 -4.38727 21.9897C-4.49379 22.0099 -4.6422 22.0487 -4.75874 22.0761C-4.7628 22.0769 -4.76658 22.0781 -4.77063 22.0791C-4.77698 22.0805 -4.78533 22.0836 -4.79143 22.085C-5.61119 22.2836 -6.1378 23.0392 -5.96827 23.7836C-5.79869 24.5282 -4.99797 24.981 -4.1733 24.8028C-4.16735 24.8014 -4.1587 24.8012 -4.1525 24.7998C-4.14319 24.7977 -4.13499 24.7932 -4.12575 24.7909C-4.01079 24.7656 -3.86673 24.7374 -3.76616 24.7104C-3.29036 24.5827 -2.94576 24.395 -2.51801 24.2306C-1.59776 23.8997 -0.835569 23.6232 -0.0930223 23.5154C0.217108 23.4911 0.543857 23.7073 0.706391 23.7985L1.31264 23.6942C2.70774 28.0315 5.63141 31.5372 9.33352 33.7369L9.08092 34.3448C9.17197 34.5809 9.27239 34.9003 9.20457 35.1334C8.93462 35.8354 8.47222 36.5763 7.94569 37.4023C7.69075 37.784 7.42983 38.0801 7.19977 38.5169C7.14472 38.6214 7.0746 38.7819 7.02146 38.8924C6.66401 39.6593 6.92621 40.5426 7.61285 40.8741C8.3038 41.2076 9.16146 40.8558 9.53263 40.0873C9.5332 40.0863 9.53507 40.0854 9.5356 40.0844C9.53598 40.0835 9.53522 40.0822 9.5356 40.0814C9.58846 39.9724 9.66336 39.8292 9.70796 39.7268C9.90501 39.2741 9.97058 38.8862 10.1092 38.4483C10.4771 37.5214 10.6793 36.5488 11.1859 35.9428C11.3246 35.7769 11.5508 35.713 11.7852 35.6501L12.1003 35.0779C15.3277 36.3202 18.9403 36.6535 22.5491 35.8319C23.3724 35.6444 24.1671 35.4019 24.9355 35.1107C25.024 35.2682 25.1885 35.5709 25.2326 35.6471C25.4709 35.7248 25.731 35.765 25.9429 36.0792C26.3219 36.7285 26.5811 37.4967 26.8968 38.4245C27.0354 38.8623 27.1039 39.2503 27.301 39.7029C27.3459 39.8061 27.4204 39.9513 27.4734 40.0605C27.8438 40.8315 28.7041 41.1845 29.3961 40.8502C30.0827 40.5186 30.3452 39.6353 29.9875 38.8685C29.9344 38.7581 29.8613 38.5975 29.8062 38.493C29.5761 38.0563 29.3153 37.7631 29.0603 37.3815C28.5337 36.5555 28.097 35.8693 27.827 35.1673C27.7141 34.8053 27.8461 34.5801 27.934 34.3448C27.8813 34.2843 27.7686 33.9424 27.7022 33.7816C31.5496 31.5036 34.3874 27.8672 35.7201 23.6674C35.9001 23.6958 36.2129 23.7513 36.3145 23.7717C36.5236 23.6334 36.716 23.4529 37.0931 23.4827C37.8356 23.5904 38.5978 23.8669 39.5181 24.1979C39.9458 24.3622 40.2904 24.5529 40.7662 24.6806C40.8668 24.7076 41.0108 24.7328 41.1258 24.7581C41.1351 24.7604 41.1432 24.7649 41.1526 24.767C41.1588 24.7684 41.1674 24.7687 41.1734 24.77C41.9981 24.9481 42.7989 24.4955 42.9683 23.7509C43.1377 23.0064 42.6113 22.2506 41.7915 22.0522C41.6722 22.0251 41.5031 21.9789 41.3873 21.9569C40.9034 21.865 40.5095 21.8876 40.053 21.8496C39.0807 21.7474 38.2753 21.6643 37.5597 21.4384C37.2679 21.3249 37.0603 20.9767 36.9593 20.8334L36.3977 20.6695C36.6889 18.5569 36.6104 16.3581 36.1064 14.1582C35.5978 11.9377 34.699 9.9069 33.5002 8.11766C33.6442 7.98632 33.9163 7.74471 33.9935 7.67363C34.016 7.42339 33.9967 7.16102 34.255 6.88393C34.8019 6.36891 35.4916 5.94186 36.3234 5.4267C36.7182 5.19378 37.0832 5.04363 37.4794 4.75023C37.569 4.68388 37.6914 4.57881 37.7855 4.50289C38.4526 3.96922 38.6062 3.04879 38.1273 2.44667C37.6483 1.84456 36.7201 1.78784 36.0529 2.32151C35.958 2.39693 35.8291 2.49531 35.7439 2.56886C35.3705 2.89098 35.1399 3.20914 34.8256 3.54332C34.1397 4.24193 33.5728 4.82476 32.9504 5.24492C32.6807 5.40236 32.2857 5.34788 32.1064 5.3373L31.5774 5.71576C28.561 2.54401 24.4542 0.516173 20.032 0.122254C20.0196 -0.0635777 20.0034 -0.399481 19.9993 -0.500571C19.8183 -0.674285 19.5996 -0.822591 19.5446 -1.1979C19.4841 -1.9478 19.5851 -2.75462 19.7021 -3.72794C19.7667 -4.18269 19.874 -4.56046 19.8923 -5.05405C19.8965 -5.16625 19.8898 -5.32907 19.8894 -5.45039C19.8893 -6.30616 19.2667 -7.00008 18.4986 -7H18.4985ZM16.7571 3.81748L16.344 11.1334L16.3143 11.1483C16.2866 11.8028 15.7494 12.3254 15.0899 12.3254C14.8197 12.3254 14.5704 12.2384 14.3678 12.09L14.3559 12.096L8.37364 7.84349C10.2122 6.03057 12.5639 4.69083 15.2741 4.07376C15.7692 3.96104 16.2641 3.87741 16.7571 3.81748ZM20.243 3.81748C23.4072 4.20773 26.3335 5.64448 28.5759 7.84647L22.6323 12.0721L22.6115 12.0632C22.084 12.4496 21.3407 12.3537 20.9295 11.8367C20.761 11.6249 20.6726 11.3759 20.662 11.1245L20.6561 11.1215L20.243 3.81748ZM6.20422 10.5762L11.6664 15.4753L11.6604 15.5051C12.1535 15.9349 12.2262 16.6807 11.815 17.1978C11.6465 17.4096 11.4211 17.5516 11.179 17.618L11.1731 17.6418L4.17151 19.6682C3.81516 16.4007 4.58315 13.2243 6.20422 10.5762ZM30.7542 10.5791C31.5658 11.8982 32.1804 13.3715 32.5462 14.9687C32.9077 16.5468 32.9984 18.122 32.8494 19.6444L25.8121 17.612L25.8062 17.5822C25.176 17.4095 24.7888 16.7667 24.9355 16.122C24.9956 15.8579 25.1354 15.6344 25.3248 15.4694L25.3218 15.4545L30.7542 10.5791H30.7542ZM17.3782 15.8538H19.6159L21.0067 17.5971L20.5075 19.7725L18.4985 20.741L16.4837 19.7695L15.9844 17.5941L17.3782 15.8538ZM24.5521 21.8198C24.6472 21.815 24.7419 21.8236 24.8344 21.8407L24.8463 21.8258L32.0886 23.0535C31.0287 26.0396 29.0005 28.6264 26.2906 30.3576L23.4793 23.5482L23.4882 23.5363C23.2299 22.9346 23.4884 22.2289 24.0826 21.942C24.2347 21.8685 24.3936 21.8278 24.5521 21.8198H24.5521ZM12.3885 21.8496C12.9412 21.8574 13.4369 22.242 13.5654 22.8062C13.6255 23.0703 13.5962 23.332 13.497 23.5631L13.5178 23.5899L10.7362 30.3307C8.13557 28.6573 6.06414 26.1516 4.95607 23.0774L12.1359 21.8556L12.1478 21.8705C12.2281 21.8556 12.3096 21.8485 12.3885 21.8496V21.8496ZM18.454 24.8028C18.6465 24.7957 18.8418 24.8353 19.0275 24.925C19.2709 25.0425 19.459 25.2276 19.5773 25.4495H19.6041L23.1435 31.8625C22.6841 32.0169 22.2119 32.1488 21.7289 32.2588C19.022 32.8751 16.3237 32.6884 13.8804 31.8535L17.4109 25.4524H17.4168C17.6287 25.0553 18.0304 24.8184 18.454 24.8028Z" fill="white" fill-opacity="0.15"/>
</g>
<defs>
<clipPath id="clip0_251_866">
<path d="M0 4C0 1.79086 1.79086 0 4 0H32C34.2091 0 36 1.79086 36 4V32C36 34.2091 34.2091 36 32 36H4C1.79086 36 0 34.2091 0 32V4Z" fill="white"/>
</clipPath>
</defs>
</svg>

<svg xmlns="http://www.w3.org/2000/svg" width="36" height="36" fill="none" viewBox="0 0 36 36"><g clip-path="url(#a)"><path fill="#326CE5" d="M0 4a4 4 0 0 1 4-4h28a4 4 0 0 1 4 4v28a4 4 0 0 1-4 4H4a4 4 0 0 1-4-4V4Z"/><path fill="#fff" d="M15.244 8.691a7.65 7.65 0 0 1 1.27-.174c4.298-.23 7.968 3.127 8.192 7.497a8.006 8.006 0 0 1-.99 4.27c3.034-1.096 5.09-4.088 4.914-7.504-.213-4.158-3.712-7.36-7.802-7.14-2.237.12-4.281 1.269-5.584 3.051Z"/><path fill="#fff" fill-opacity=".15" d="M18.498-7c-.768 0-1.39.694-1.39 1.55 0 .013.002.025.003.038-.001.117-.007.257-.003.358.018.494.125.871.19 1.326.117.973.215 1.78.155 2.53-.06.283-.267.542-.452.721l-.033.59a18.15 18.15 0 0 0-2.514.388 17.879 17.879 0 0 0-9.088 5.206 23.28 23.28 0 0 1-.502-.358c-.248.034-.5.11-.826-.08-.623-.42-1.19-1-1.875-1.699-.315-.334-.542-.652-.916-.974-.085-.073-.214-.172-.309-.248a1.651 1.651 0 0 0-.969-.366 1.338 1.338 0 0 0-1.108.491c-.479.603-.326 1.523.342 2.057l.02.015c.092.074.204.17.289.232.396.293.758.444 1.153.677.832.515 1.521.942 2.068 1.457.214.228.251.63.28.804l.445.4A18.087 18.087 0 0 0 .62 20.696l-.582.17c-.154.199-.37.512-.598.605-.715.226-1.52.31-2.493.411-.456.038-.85.016-1.334.108-.107.02-.255.059-.372.086l-.012.003-.02.006c-.82.199-1.347.954-1.177 1.699.17.744.97 1.197 1.795 1.019.006-.002.014-.002.02-.003.01-.002.018-.007.027-.01.115-.024.26-.053.36-.08.476-.127.82-.315 1.248-.48.92-.33 1.682-.607 2.425-.715.31-.024.637.192.8.284l.606-.105a18.14 18.14 0 0 0 8.02 10.043l-.252.608c.091.236.191.555.124.788-.27.702-.733 1.443-1.26 2.27-.254.381-.515.677-.745 1.114-.055.104-.125.265-.179.375-.357.767-.095 1.65.592 1.982.69.334 1.548-.018 1.92-.787l.003-.003v-.003c.052-.109.127-.252.172-.354.197-.453.263-.84.401-1.279.368-.927.57-1.9 1.077-2.505.139-.166.365-.23.6-.293l.314-.572a17.923 17.923 0 0 0 12.836.033c.088.157.253.46.297.536.238.078.498.118.71.432.379.65.638 1.418.954 2.346.138.437.207.825.404 1.278.045.103.12.248.172.357.37.771 1.231 1.124 1.923.79.687-.331.95-1.215.591-1.982-.053-.11-.126-.27-.18-.375-.23-.437-.492-.73-.747-1.111-.526-.826-.963-1.513-1.233-2.215-.113-.362.02-.587.107-.822-.053-.06-.165-.403-.232-.563 3.848-2.278 6.685-5.915 8.018-10.115.18.029.493.084.595.105.209-.139.401-.32.778-.29.743.108 1.505.385 2.425.716.428.164.772.355 1.248.483.1.027.245.052.36.077.01.002.017.007.027.009l.02.003c.825.178 1.626-.274 1.795-1.02.17-.744-.357-1.5-1.177-1.698-.119-.027-.288-.073-.404-.095-.484-.092-.877-.07-1.334-.107-.972-.103-1.778-.186-2.493-.412-.292-.113-.5-.461-.6-.605l-.562-.163a18.058 18.058 0 0 0-.292-6.512 18.078 18.078 0 0 0-2.606-6.04c.144-.132.416-.373.493-.444.023-.25.004-.513.262-.79.547-.515 1.237-.942 2.068-1.457.395-.233.76-.383 1.156-.677.09-.066.212-.171.306-.247.668-.534.821-1.454.342-2.056-.479-.602-1.407-.66-2.074-.125-.095.075-.224.173-.31.247-.373.322-.603.64-.917.974-.686.699-1.253 1.282-1.876 1.702-.27.157-.664.103-.844.092l-.529.379C28.561 2.544 24.454.516 20.032.122a33.365 33.365 0 0 1-.033-.623c-.18-.173-.4-.322-.454-.697-.06-.75.04-1.557.157-2.53.065-.455.172-.832.19-1.326.005-.112-.002-.275-.003-.396 0-.856-.622-1.55-1.39-1.55Zm-1.74 10.817-.414 7.316-.03.015a1.228 1.228 0 0 1-1.946.942l-.012.006-5.982-4.253a14.316 14.316 0 0 1 6.9-3.77c.495-.112.99-.196 1.483-.256Zm3.485 0c3.164.39 6.09 1.827 8.333 4.03l-5.944 4.225-.02-.009a1.225 1.225 0 0 1-1.95-.939l-.006-.003-.413-7.304Zm-14.039 6.76 5.462 4.898-.006.03a1.23 1.23 0 0 1-.481 2.113l-.006.024-7.001 2.026a14.396 14.396 0 0 1 2.032-9.092Zm24.55.002a14.564 14.564 0 0 1 1.792 4.39 14.56 14.56 0 0 1 .303 4.675l-7.037-2.032-.006-.03a1.23 1.23 0 0 1-.481-2.113l-.003-.014 5.432-4.876Zm-13.376 5.275h2.238l1.39 1.743-.498 2.175-2.01.969-2.014-.971-.5-2.176 1.394-1.74Zm7.174 5.966c.095-.005.19.004.282.02l.012-.014 7.243 1.227a14.376 14.376 0 0 1-5.798 7.305l-2.812-6.81.01-.012a1.232 1.232 0 0 1 1.063-1.716Zm-12.163.03a1.227 1.227 0 0 1 1.108 1.713l.02.027-2.78 6.74a14.434 14.434 0 0 1-5.78-7.253l7.179-1.221.012.014a1.31 1.31 0 0 1 .24-.02Zm6.065 2.953a1.21 1.21 0 0 1 .573.122c.244.117.432.303.55.524h.027l3.54 6.413c-.46.155-.932.287-1.415.397-2.707.616-5.405.43-7.849-.405l3.53-6.402h.007a1.227 1.227 0 0 1 1.037-.65Z"/></g><defs><clipPath id="a"><path fill="#fff" d="M0 4a4 4 0 0 1 4-4h28a4 4 0 0 1 4 4v28a4 4 0 0 1-4 4H4a4 4 0 0 1-4-4V4Z"/></clipPath></defs></svg>
